src/icons/svg/clipboard.svg

<?xml version="1.0"?><svg xmlns="http://www.w3.org/2000/svg" width="40" height="40" viewBox="0 0 40 40"><path  d="m17.1 37.1h20v-14.2h-9.2q-0.9 0-1.6-0.7t-0.6-1.5v-9.3h-8.6v25.7z m5.8-32.1v-1.4q0-0.3-0.3-0.5t-0.5-0.2h-15.7q-0.3 0-0.5 0.2t-0.2 0.5v1.4q0 0.3 0.2 0.5t0.5 0.2h15.7q0.3 0 0.5-0.2t0.3-0.5z m5.7 15h6.6l-6.6-6.7v6.7z m11.4 2.9v15q0 0.9-0.6 1.5t-1.5 0.6h-21.5q-0.9 0-1.5-0.6t-0.6-1.5v-3.6h-12.2q-0.9 0-1.5-0.6t-0.6-1.6v-30q0-0.8 0.6-1.5t1.5-0.6h24.3q0.9 0 1.5 0.6t0.7 1.5v7.4q0.4 0.3 0.8 0.6l9.1 9.1q0.6 0.6 1.1 1.7t0.4 2z"></path></svg>

<svg xmlns="http://www.w3.org/2000/svg" width="40" height="40" viewBox="0 0 40 40"><path d="M17.1 37.1h20V22.9h-9.2q-.9 0-1.6-.7t-.6-1.5v-9.3h-8.6v25.7zM22.9 5V3.6q0-.3-.3-.5t-.5-.2H6.4q-.3 0-.5.2t-.2.5V5q0 .3.2.5t.5.2h15.7q.3 0 .5-.2t.3-.5zm5.7 15h6.6l-6.6-6.7V20zM40 22.9v15q0 .9-.6 1.5t-1.5.6H16.4q-.9 0-1.5-.6t-.6-1.5v-3.6H2.1q-.9 0-1.5-.6T0 32.1v-30Q0 1.3.6.6T2.1 0h24.3q.9 0 1.5.6t.7 1.5v7.4l.8.6 9.1 9.1q.6.6 1.1 1.7t.4 2z"/></svg>
